;FLAVOR:UltiGCode
;TIME:3452
;MATERIAL:4414
;MATERIAL2:0
;NOZZLE_DIAMETER:0.400000
;NOZZLE_DIAMETER2:0.400000

;Layer count: 59
;LAYER:0
M107
G0 F9000 X90.252 Y87.752 Z0.300
;TYPE:SKIRT
G1 F1200 X91.355 Y86.696 E0.18324
G1 X92.504 Y85.689 E0.36658
G1 X93.696 Y84.732 E0.55002
G1 X94.925 Y83.832 E0.73281
G1 X96.194 Y82.982 E0.91610
G1 X97.502 Y82.190 E1.09959
G1 X98.838 Y81.457 E1.28245
G1 X100.209 Y80.780 E1.46594
G1 X101.608 Y80.165 E1.64932
G1 X103.031 Y79.611 E1.83257
G1 X104.474 Y79.122 E2.01540
G1 X105.939 Y78.694 E2.19855
G1 X107.424 Y78.330 E2.38202
G1 X108.923 Y78.032 E2.56542
G1 X110.435 Y77.800 E2.74899
G1 X111.954 Y77.634 E2.93235
G1 X113.475 Y77.535 E3.11526
G1 X115.000 Y77.501 E3.29830
G1 X116.525 Y77.535 E3.48135
G1 X118.046 Y77.634 E3.66426
G1 X119.565 Y77.800 E3.84762
G1 X121.077 Y78.032 E4.03118
G1 X122.576 Y78.330 E4.21458
G1 X124.061 Y78.694 E4.39806
G1 X125.526 Y79.122 E4.58121
G1 X126.969 Y79.611 E4.76404
G1 X128.392 Y80.165 E4.94729
G1 X129.791 Y80.780 E5.13067
G1 X131.162 Y81.457 E5.31416
G1 X132.498 Y82.190 E5.49702
G1 X133.806 Y82.982 E5.68051
G1 X135.075 Y83.832 E5.86380
G1 X136.304 Y84.732 E6.04659
G1 X137.496 Y85.689 E6.23003
G1 X138.645 Y86.696 E6.41337
G1 X139.748 Y87.752 E6.59661
G1 X140.804 Y88.855 E6.77985
G1 X141.811 Y90.004 E6.96319
G1 X142.768 Y91.196 E7.14662
G1 X143.668 Y92.425 E7.32942
G1 X144.518 Y93.694 E7.51270
G1 X145.310 Y95.002 E7.69619
G1 X146.043 Y96.338 E7.87906
G1 X146.720 Y97.709 E8.06254
G1 X147.335 Y99.108 E8.24593
G1 X147.889 Y100.531 E8.42917
G1 X148.378 Y101.974 E8.61201
G1 X148.806 Y103.439 E8.79515
G1 X149.170 Y104.924 E8.97863
G1 X149.468 Y106.423 E9.16203
G1 X149.700 Y107.935 E9.34559
G1 X149.866 Y109.454 E9.52896
G1 X149.965 Y110.975 E9.71187
G1 X149.999 Y112.500 E9.89491
G1 X149.965 Y114.025 E10.07796
G1 X149.866 Y115.546 E10.26086
G1 X149.700 Y117.065 E10.44423
G1 X149.468 Y118.577 E10.62779
G1 X149.170 Y120.076 E10.81119
G1 X148.806 Y121.561 E10.99467
G1 X148.378 Y123.026 E11.17782
G1 X147.889 Y124.469 E11.36065
G1 X147.335 Y125.892 E11.54389
G1 X146.720 Y127.291 E11.72728
G1 X146.043 Y128.662 E11.91076
G1 X145.310 Y129.998 E12.09363
G1 X144.518 Y131.306 E12.27712
G1 X143.668 Y132.575 E12.46040
G1 X142.768 Y133.804 E12.64320
G1 X141.811 Y134.996 E12.82663
G1 X140.804 Y136.145 E13.00997
G1 X139.748 Y137.248 E13.19321
G1 X138.645 Y138.304 E13.37645
G1 X137.496 Y139.311 E13.55979
G1 X136.304 Y140.268 E13.74323
G1 X135.075 Y141.168 E13.92603
G1 X133.806 Y142.018 E14.10931
G1 X132.498 Y142.810 E14.29280
G1 X131.162 Y143.543 E14.47567
G1 X129.791 Y144.220 E14.65915
G1 X128.392 Y144.835 E14.84254
G1 X126.969 Y145.389 E15.02578
G1 X125.526 Y145.878 E15.20861
G1 X124.061 Y146.306 E15.39176
G1 X122.576 Y146.670 E15.57524
G1 X121.077 Y146.968 E15.75864
G1 X119.565 Y147.200 E15.94220
G1 X118.046 Y147.366 E16.12557
G1 X116.525 Y147.465 E16.30847
G1 X115.000 Y147.499 E16.49152
G1 X113.475 Y147.465 E16.67456
G1 X111.954 Y147.366 E16.85747
G1 X110.435 Y147.200 E17.04083
G1 X108.923 Y146.968 E17.22440
G1 X107.424 Y146.670 E17.40780
G1 X105.939 Y146.306 E17.59127
G1 X104.474 Y145.878 E17.77442
G1 X103.031 Y145.389 E17.95725
G1 X101.608 Y144.835 E18.14050
G1 X100.209 Y144.220 E18.32388
G1 X98.838 Y143.543 E18.50737
G1 X97.502 Y142.810 E18.69023
G1 X96.194 Y142.018 E18.87373
G1 X94.925 Y141.168 E19.05701
G1 X93.696 Y140.268 E19.23981
G1 X92.504 Y139.311 E19.42324
G1 X91.355 Y138.304 E19.60658
G1 X90.252 Y137.248 E19.78982
G1 X89.196 Y136.145 E19.97306
G1 X88.189 Y134.996 E20.15640
G1 X87.232 Y133.804 E20.33984
G1 X86.332 Y132.575 E20.52263
G1 X85.482 Y131.306 E20.70592
G1 X84.690 Y129.998 E20.88941
G1 X83.957 Y128.662 E21.07227
G1 X83.280 Y127.291 E21.25576
G1 X82.665 Y125.892 E21.43914
G1 X82.111 Y124.469 E21.62239
G1 X81.622 Y123.026 E21.80522
G1 X81.194 Y121.561 E21.98837
G1 X80.830 Y120.076 E22.17184
G1 X80.532 Y118.577 E22.35524
G1 X80.300 Y117.065 E22.53881
G1 X80.134 Y115.546 E22.72217
G1 X80.035 Y114.025 E22.90508
G1 X80.001 Y112.500 E23.08812
G1 X80.035 Y110.975 E23.27117
G1 X80.134 Y109.454 E23.45408
G1 X80.300 Y107.935 E23.63744
G1 X80.532 Y106.423 E23.82101
G1 X80.830 Y104.924 E24.00441
G1 X81.194 Y103.439 E24.18788
G1 X81.622 Y101.974 E24.37103
G1 X82.111 Y100.531 E24.55386
G1 X82.665 Y99.108 E24.73711
G1 X83.280 Y97.709 E24.92049
G1 X83.957 Y96.338 E25.10398
G1 X84.690 Y95.002 E25.28684
G1 X85.482 Y93.694 E25.47033
G1 X86.332 Y92.425 E25.65362
G1 X87.232 Y91.196 E25.83641
G1 X88.189 Y90.004 E26.01985
G1 X89.196 Y88.855 E26.20319
G1 X90.252 Y87.752 E26.38643
G0 F9000 X90.535 Y88.035
G1 F1200 X91.625 Y86.991 E26.56755
G1 X92.761 Y85.995 E26.74884
G1 X93.940 Y85.049 E26.93024
G1 X95.155 Y84.160 E27.11090
G1 X96.409 Y83.320 E27.29202
G1 X97.702 Y82.536 E27.47347
G1 X99.022 Y81.811 E27.65419
G1 X100.378 Y81.143 E27.83558
G1 X101.762 Y80.534 E28.01703
G1 X103.168 Y79.987 E28.19807
G1 X104.594 Y79.504 E28.37874
G1 X106.043 Y79.080 E28.55991
G1 X107.511 Y78.721 E28.74126
G1 X108.993 Y78.426 E28.92259
G1 X110.487 Y78.196 E29.10398
G1 X111.988 Y78.032 E29.28518
G1 X113.492 Y77.934 E29.46604
G1 X115.000 Y77.901 E29.64704
G1 X116.508 Y77.934 E29.82804
G1 X118.012 Y78.032 E30.00891
G1 X119.513 Y78.196 E30.19010
G1 X121.007 Y78.426 E30.37149
G1 X122.489 Y78.721 E30.55282
G1 X123.957 Y79.080 E30.73417
G1 X125.406 Y79.504 E30.91534
G1 X126.832 Y79.987 E31.09601
G1 X128.238 Y80.534 E31.27705
G1 X129.622 Y81.143 E31.45850
G1 X130.978 Y81.811 E31.63989
G1 X132.298 Y82.536 E31.82061
G1 X133.591 Y83.320 E32.00207
G1 X134.845 Y84.160 E32.18319
G1 X136.060 Y85.049 E32.36385
G1 X137.239 Y85.995 E32.54524
G1 X138.375 Y86.991 E32.72654
G1 X139.465 Y88.035 E32.90765
G1 X140.509 Y89.125 E33.08877
G1 X141.505 Y90.261 E33.27007
G1 X142.451 Y91.440 E33.45146
G1 X143.340 Y92.655 E33.63212
G1 X144.180 Y93.909 E33.81324
G1 X144.964 Y95.202 E33.99470
G1 X145.689 Y96.522 E34.17542
G1 X146.357 Y97.878 E34.35681
G1 X146.966 Y99.262 E34.53826
G1 X147.513 Y100.668 E34.71930
G1 X147.996 Y102.094 E34.89996
G1 X148.420 Y103.543 E35.08114
G1 X148.779 Y105.011 E35.26249
G1 X149.074 Y106.493 E35.44382
G1 X149.304 Y107.987 E35.62521
G1 X149.468 Y109.488 E35.80640
G1 X149.566 Y110.992 E35.98726
G1 X149.599 Y112.500 E36.16827
G1 X149.566 Y114.008 E36.34927
G1 X149.468 Y115.512 E36.53013
G1 X149.304 Y117.013 E36.71132
G1 X149.074 Y118.507 E36.89272
G1 X148.779 Y119.989 E37.07405
G1 X148.420 Y121.457 E37.25540
G1 X147.996 Y122.906 E37.43657
G1 X147.513 Y124.332 E37.61724
G1 X146.966 Y125.738 E37.79828
G1 X146.357 Y127.122 E37.97972
G1 X145.689 Y128.478 E38.16112
G1 X144.964 Y129.798 E38.34184
G1 X144.180 Y131.091 E38.52329
G1 X143.340 Y132.345 E38.70441
G1 X142.451 Y133.560 E38.88507
G1 X141.505 Y134.739 E39.06647
G1 X140.509 Y135.875 E39.24776
G1 X139.465 Y136.965 E39.42888
G1 X138.375 Y138.009 E39.61000
G1 X137.239 Y139.005 E39.79129
G1 X136.060 Y139.951 E39.97269
G1 X134.845 Y140.840 E40.15335
G1 X133.591 Y141.680 E40.33447
G1 X132.298 Y142.464 E40.51592
G1 X130.978 Y143.189 E40.69664
G1 X129.622 Y143.857 E40.87803
G1 X128.238 Y144.466 E41.05948
G1 X126.832 Y145.013 E41.24052
G1 X125.406 Y145.496 E41.42119
G1 X123.957 Y145.920 E41.60236
G1 X122.489 Y146.279 E41.78371
G1 X121.007 Y146.574 E41.96504
G1 X119.513 Y146.804 E42.14643
G1 X118.012 Y146.968 E42.32763
G1 X116.508 Y147.066 E42.50849
G1 X115.000 Y147.099 E42.68949
G1 X113.492 Y147.066 E42.87050
G1 X111.988 Y146.968 E43.05136
G1 X110.487 Y146.804 E43.23255
G1 X108.993 Y146.574 E43.41394
G1 X107.511 Y146.279 E43.59527
G1 X106.043 Y145.920 E43.77662
G1 X104.594 Y145.496 E43.95779
G1 X103.168 Y145.013 E44.13846
G1 X101.762 Y144.466 E44.31950
G1 X100.378 Y143.857 E44.50095
G1 X99.022 Y143.189 E44.68234
G1 X97.702 Y142.464 E44.86306
G1 X96.409 Y141.680 E45.04452
G1 X95.155 Y140.840 E45.22564
G1 X93.940 Y139.951 E45.40630
G1 X92.761 Y139.005 E45.58769
G1 X91.625 Y138.009 E45.76899
G1 X90.535 Y136.965 E45.95010
G1 X89.491 Y135.875 E46.13122
G1 X88.495 Y134.739 E46.31252
G1 X87.549 Y133.560 E46.49391
G1 X86.660 Y132.345 E46.67457
G1 X85.820 Y131.091 E46.85569
G1 X85.036 Y129.798 E47.03715
G1 X84.311 Y128.478 E47.21787
G1 X83.643 Y127.122 E47.39926
G1 X83.034 Y125.738 E47.58071
G1 X82.487 Y124.332 E47.76175
G1 X82.004 Y122.906 E47.94242
G1 X81.580 Y121.457 E48.12359
G1 X81.221 Y119.989 E48.30494
G1 X80.926 Y118.507 E48.48627
G1 X80.696 Y117.013 E48.66766
G1 X80.532 Y115.512 E48.84885
G1 X80.434 Y114.008 E49.02971
G1 X80.401 Y112.500 E49.21072
G1 X80.434 Y110.992 E49.39172
G1 X80.532 Y109.488 E49.57258
G1 X80.696 Y107.987 E49.75378
G1 X80.926 Y106.493 E49.93517
G1 X81.221 Y105.011 E50.11650
G1 X81.580 Y103.543 E50.29785
G1 X82.004 Y102.094 E50.47902
G1 X82.487 Y100.668 E50.65969
G1 X83.034 Y99.262 E50.84073
G1 X83.643 Y97.878 E51.02217
G1 X84.311 Y96.522 E51.20357
G1 X85.036 Y95.202 E51.38429
G1 X85.820 Y93.909 E51.56574
G1 X86.660 Y92.655 E51.74686
G1 X87.549 Y91.440 E51.92752
G1 X88.495 Y90.261 E52.10892
G1 X89.491 Y89.125 E52.29021
G1 X90.535 Y88.035 E52.47133
G0 F9000 X90.818 Y88.318
G1 F1200 X91.895 Y87.286 E52.65033
G1 X93.018 Y86.302 E52.82950
G1 X94.183 Y85.367 E53.00876
G1 X95.384 Y84.487 E53.18742
G1 X96.624 Y83.657 E53.36648
G1 X97.902 Y82.883 E53.54577
G1 X99.207 Y82.166 E53.72445
G1 X100.547 Y81.505 E53.90375
G1 X101.915 Y80.904 E54.08306
G1 X103.305 Y80.363 E54.26204
G1 X104.714 Y79.885 E54.44059
G1 X106.146 Y79.466 E54.61963
G1 X107.598 Y79.112 E54.79898
G1 X109.062 Y78.820 E54.97812
G1 X110.539 Y78.593 E55.15744
G1 X112.023 Y78.431 E55.33658
G1 X113.510 Y78.334 E55.51540
G1 X115.000 Y78.301 E55.69424
G1 X116.490 Y78.334 E55.87308
G1 X117.977 Y78.431 E56.05190
G1 X119.461 Y78.593 E56.23104
G1 X120.938 Y78.820 E56.41036
G1 X122.402 Y79.112 E56.58950
G1 X123.854 Y79.466 E56.76885
G1 X125.286 Y79.885 E56.94789
G1 X126.695 Y80.363 E57.12644
G1 X128.085 Y80.904 E57.30542
G1 X129.453 Y81.505 E57.48473
G1 X130.793 Y82.166 E57.66403
G1 X132.098 Y82.883 E57.84271
G1 X133.376 Y83.657 E58.02200
G1 X134.616 Y84.487 E58.20106
G1 X135.817 Y85.367 E58.37972
G1 X136.982 Y86.302 E58.55898
G1 X138.105 Y87.286 E58.73815
G1 X139.182 Y88.318 E58.91715
G1 X140.214 Y89.395 E59.09614
G1 X141.198 Y90.518 E59.27532
G1 X142.133 Y91.683 E59.45457
G1 X143.013 Y92.884 E59.63324
G1 X143.843 Y94.124 E59.81230
G1 X144.617 Y95.402 E59.99159
G1 X145.334 Y96.707 E60.17027
G1 X145.995 Y98.047 E60.34957
G1 X146.596 Y99.415 E60.52888
G1 X147.137 Y100.805 E60.70786
G1 X147.615 Y102.214 E60.88641
G1 X148.034 Y103.646 E61.06545
G1 X148.388 Y105.098 E61.24480
G1 X148.680 Y106.562 E61.42394
G1 X148.907 Y108.039 E61.60326
G1 X149.069 Y109.523 E61.78240
G1 X149.166 Y111.010 E61.96122
G1 X149.199 Y112.500 E62.14006
G1 X149.166 Y113.990 E62.31890
G1 X149.069 Y115.477 E62.49772
G1 X148.907 Y116.961 E62.67686
G1 X148.680 Y118.438 E62.85618
G1 X148.388 Y119.902 E63.03532
G1 X148.034 Y121.354 E63.21467
G1 X147.615 Y122.786 E63.39371
G1 X147.137 Y124.195 E63.57225
G1 X146.596 Y125.585 E63.75124
G1 X145.995 Y126.953 E63.93055
G1 X145.334 Y128.293 E64.10985
G1 X144.617 Y129.598 E64.28853
G1 X143.843 Y130.876 E64.46782
G1 X143.013 Y132.116 E64.64688
G1 X142.133 Y133.317 E64.82554
G1 X141.198 Y134.482 E65.00480
G1 X140.214 Y135.605 E65.18397
G1 X139.182 Y136.682 E65.36297
G1 X138.105 Y137.714 E65.54196
G1 X136.982 Y138.698 E65.72114
G1 X135.817 Y139.633 E65.90039
G1 X134.616 Y140.513 E66.07906
G1 X133.376 Y141.343 E66.25812
G1 X132.098 Y142.117 E66.43741
G1 X130.793 Y142.834 E66.61609
G1 X129.453 Y143.495 E66.79539
G1 X128.085 Y144.096 E66.97469
G1 X126.695 Y144.637 E67.15368
G1 X125.286 Y145.115 E67.33223
G1 X123.854 Y145.534 E67.51127
G1 X122.402 Y145.888 E67.69062
G1 X120.938 Y146.180 E67.86976
G1 X119.461 Y146.407 E68.04908
G1 X117.977 Y146.569 E68.22822
G1 X116.490 Y146.666 E68.40703
G1 X115.000 Y146.699 E68.58588
G1 X113.510 Y146.666 E68.76472
G1 X112.023 Y146.569 E68.94354
G1 X110.539 Y146.407 E69.12268
G1 X109.062 Y146.180 E69.30200
G1 X107.598 Y145.888 E69.48114
G1 X106.146 Y145.534 E69.66048
G1 X104.714 Y145.115 E69.83953
G1 X103.305 Y144.637 E70.01807
G1 X101.915 Y144.096 E70.19706
G1 X100.547 Y143.495 E70.37637
G1 X99.207 Y142.834 E70.55567
G1 X97.902 Y142.117 E70.73435
G1 X96.624 Y141.343 E70.91364
G1 X95.384 Y140.513 E71.09270
G1 X94.183 Y139.633 E71.27136
G1 X93.018 Y138.698 E71.45062
G1 X91.895 Y137.714 E71.62979
G1 X90.818 Y136.682 E71.80879
G1 X89.786 Y135.605 E71.98778
G1 X88.802 Y134.482 E72.16696
G1 X87.867 Y133.317 E72.34621
G1 X86.987 Y132.116 E72.52488
G1 X86.157 Y130.876 E72.70394
G1 X85.383 Y129.598 E72.88323
G1 X84.666 Y128.293 E73.06191
G1 X84.005 Y126.953 E73.24121
G1 X83.404 Y125.585 E73.42051
G1 X82.863 Y124.195 E73.59950
G1 X82.385 Y122.786 E73.77805
G1 X81.966 Y121.354 E73.95709
G1 X81.612 Y119.902 E74.13644
G1 X81.320 Y118.438 E74.31558
G1 X81.093 Y116.961 E74.49490
G1 X80.931 Y115.477 E74.67404
G1 X80.834 Y113.990 E74.85285
G1 X80.801 Y112.500 E75.03170
G1 X80.834 Y111.010 E75.21054
G1 X80.931 Y109.523 E75.38936
G1 X81.093 Y108.039 E75.56850
G1 X81.320 Y106.562 E75.74782
G1 X81.612 Y105.098 E75.92696
G1 X81.966 Y103.646 E76.10630
G1 X82.385 Y102.214 E76.28535
G1 X82.863 Y100.805 E76.46389
G1 X83.404 Y99.415 E76.64288
G1 X84.005 Y98.047 E76.82219
G1 X84.666 Y96.707 E77.00149
G1 X85.383 Y95.402 E77.18017
G1 X86.157 Y94.124 E77.35946
G1 X86.987 Y92.884 E77.53852
G1 X87.867 Y91.683 E77.71718
G1 X88.802 Y90.518 E77.89644
G1 X89.786 Y89.395 E78.07561
G1 X90.818 Y88.318 E78.25461
G0 F9000 X91.101 Y88.601
G1 F1200 X92.166 Y87.581 E78.43157
G1 X93.275 Y86.608 E78.60861
G1 X94.427 Y85.684 E78.78582
G1 X95.614 Y84.815 E78.96235
G1 X96.839 Y83.994 E79.13931
G1 X98.102 Y83.229 E79.31651
G1 X99.392 Y82.521 E79.49309
G1 X100.716 Y81.868 E79.67024
G1 X102.068 Y81.274 E79.84745
G1 X103.442 Y80.739 E80.02439
G1 X104.835 Y80.267 E80.20088
G1 X106.250 Y79.853 E80.37780
G1 X107.684 Y79.502 E80.55496
G1 X109.132 Y79.214 E80.73213
G1 X110.591 Y78.990 E80.90926
G1 X112.058 Y78.829 E81.08635
G1 X113.527 Y78.734 E81.26300
G1 X115.000 Y78.701 E81.43981
G1 X116.473 Y78.734 E81.61661
G1 X117.942 Y78.829 E81.79326
G1 X119.409 Y78.990 E81.97036
G1 X120.868 Y79.214 E82.14749
G1 X122.316 Y79.502 E82.32465
G1 X123.750 Y79.853 E82.50181
G1 X125.165 Y80.267 E82.67873
G1 X126.558 Y80.739 E82.85522
G1 X127.932 Y81.274 E83.03216
G1 X129.284 Y81.868 E83.20937
G1 X130.608 Y82.521 E83.38652
G1 X131.898 Y83.229 E83.56311
G1 X133.161 Y83.994 E83.74030
G1 X134.386 Y84.815 E83.91726
G1 X135.573 Y85.684 E84.09379
G1 X136.725 Y86.608 E84.27101
G1 X137.834 Y87.581 E84.44805
G1 X138.899 Y88.601 E84.62501
G1 X139.919 Y89.666 E84.80196
G1 X140.892 Y90.775 E84.97900
G1 X141.816 Y91.927 E85.15622
G1 X142.685 Y93.114 E85.33275
G1 X143.506 Y94.339 E85.50971
G1 X144.271 Y95.602 E85.68691
G1 X144.979 Y96.892 E85.86349
G1 X145.632 Y98.216 E86.04064
G1 X146.226 Y99.568 E86.21785
G1 X146.761 Y100.942 E86.39479
G1 X147.233 Y102.335 E86.57128
G1 X147.647 Y103.750 E86.74820
G1 X147.998 Y105.184 E86.92536
G1 X148.286 Y106.632 E87.10252
G1 X148.510 Y108.091 E87.27965
G1 X148.671 Y109.558 E87.45675
G1 X148.766 Y111.027 E87.63340
G1 X148.799 Y112.500 E87.81020
G1 X148.766 Y113.973 E87.98701
G1 X148.671 Y115.442 E88.16366
G1 X148.510 Y116.909 E88.34075
G1 X148.286 Y118.368 E88.51789
G1 X147.998 Y119.816 E88.69505
G1 X147.647 Y121.250 E88.87221
G1 X147.233 Y122.665 E89.04913
G1 X146.761 Y124.058 E89.22562
G1 X146.226 Y125.432 E89.40256
G1 X145.632 Y126.784 E89.57977
G1 X144.979 Y128.108 E89.75692
G1 X144.271 Y129.398 E89.93350
G1 X143.506 Y130.661 E90.11070
G1 X142.685 Y131.886 E90.28766
G1 X141.816 Y133.073 E90.46419
G1 X140.892 Y134.225 E90.64140
G1 X139.919 Y135.334 E90.81844
G1 X138.899 Y136.399 E90.99540
G1 X137.834 Y137.419 E91.17236
G1 X136.725 Y138.392 E91.34940
G1 X135.573 Y139.316 E91.52662
G1 X134.386 Y140.185 E91.70315
G1 X133.161 Y141.006 E91.88011
G1 X131.898 Y141.771 E92.05730
G1 X130.608 Y142.479 E92.23388
G1 X129.284 Y143.132 E92.41104
G1 X127.932 Y143.726 E92.58825
G1 X126.558 Y144.261 E92.76518
G1 X125.165 Y144.733 E92.94168
G1 X123.750 Y145.147 E93.11860
G1 X122.316 Y145.498 E93.29576
G1 X120.868 Y145.786 E93.47292
G1 X119.409 Y146.010 E93.65005
G1 X117.942 Y146.171 E93.82715
